app/dist/common/images/tri-pointe.svg

<svg height="18" width="18" xmlns="http://www.w3.org/2000/svg"><path d="m0 0h18v18h-18z" fill="#737475"/><path d="m2 8v-.999h5v.999h-2v4h-1v-4zm6 4v-4.999h2.143c.087 0 1.242-.044 1.714.429.715.715.429 2.571-.857 2.571l1.286 1.999h-1.286l-1.286-2.428h.429c1.19 0 1.218-1.572 0-1.572h-1.143v4zm6-5v5h1v-4.999z" fill="#bdc471"/></svg>

<!-- by TradingView --><svg width="18" height="18" xmlns="http://www.w3.org/2000/svg"><path fill="#737475" d="M0 0h18v18H0z"/><path d="M2 8v-.999h5V8H5v4H4V8H2zM8 12V7.001h2.143c.087 0 1.242-.044 1.714.429.715.715.429 2.571-.857 2.571L12.286 12H11L9.714 9.572h.429c1.19 0 1.218-1.572 0-1.572H9v4H8zM14 7v5h1V7.001L14 7z" fill="#BDC471"/></svg>
